svg/fluentui-system-icons/ic_fluent_bowl_chopsticks_20_filled.svg

<svg width="20" height="20" viewBox="0 0 20 20" fill="none" xmlns="http://www.w3.org/2000/svg">
<path d="M4.23795 2.07424C4.47313 1.92952 4.7811 2.00284 4.92583 2.23802L9.08709 9.00007H10.9129L7.07417 2.76212C6.92945 2.52694 7.00277 2.21897 7.23795 2.07424C7.47313 1.92952 7.7811 2.00284 7.92583 2.23802L12.0871 9.00007H17.5C17.7761 9.00007 18 9.22393 18 9.50007V10.0001C18 10.6907 17.9125 11.3608 17.748 12.0001H2.25203C2.08751 11.3608 2 10.6907 2 10.0001V9.50007C2 9.22393 2.22386 9.00007 2.5 9.00007H7.91291L4.07417 2.76212C3.92945 2.52694 4.00277 2.21897 4.23795 2.07424ZM10 18.0001C6.64262 18.0001 3.76829 15.9319 2.58152 13.0001H17.4185C16.2317 15.9319 13.3574 18.0001 10 18.0001Z" fill="#212121"/>
</svg>

<svg xmlns="http://www.w3.org/2000/svg" width="20" height="20"><path d="M4.238 2.074a.5.5 0 0 1 .688.164L9.087 9h1.826L7.074 2.762a.5.5 0 0 1 .852-.524L12.087 9H17.5a.5.5 0 0 1 .5.5v.5a8 8 0 0 1-.252 2H2.252A8.015 8.015 0 0 1 2 10v-.5a.5.5 0 0 1 .5-.5h5.413L4.074 2.762a.5.5 0 0 1 .164-.688ZM10 18a8.003 8.003 0 0 1-7.418-5h14.837A8.003 8.003 0 0 1 10 18Z"/></svg>
